icons/svg/subway/subway_budapest.svg

<?xml version="1.0" encoding="UTF-8" standalone="no"?>
<svg
   xmlns:dc="http://purl.org/dc/elements/1.1/"
   xmlns:cc="http://creativecommons.org/ns#"
   xmlns:rdf="http://www.w3.org/1999/02/22-rdf-syntax-ns#"
   xmlns:svg="http://www.w3.org/2000/svg"
   xmlns="http://www.w3.org/2000/svg"
   xmlns:sodipodi="http://sodipodi.sourceforge.net/DTD/sodipodi-0.dtd"
   xmlns:inkscape="http://www.inkscape.org/namespaces/inkscape"
   width="16"
   height="16"
   id="svg2"
   version="1.1"
   inkscape:version="0.91 r"
   sodipodi:docname="subway_budapest.svg">
  <defs
     id="defs13" />
  <sodipodi:namedview
     pagecolor="#ffffff"
     bordercolor="#666666"
     borderopacity="1"
     objecttolerance="10"
     gridtolerance="10"
     guidetolerance="10"
     inkscape:pageopacity="0"
     inkscape:pageshadow="2"
     inkscape:window-width="1920"
     inkscape:window-height="1004"
     id="namedview11"
     showgrid="true"
     inkscape:zoom="52.082758"
     inkscape:cx="4.9753646"
     inkscape:cy="8.8522132"
     inkscape:window-x="1680"
     inkscape:window-y="0"
     inkscape:window-maximized="1"
     inkscape:current-layer="svg2"
     showguides="false">
    <sodipodi:guide
       position="0,0"
       orientation="0,580"
       id="guide2989" />
    <sodipodi:guide
       position="580,0"
       orientation="-580,0"
       id="guide2991" />
    <sodipodi:guide
       position="580,580"
       orientation="0,-580"
       id="guide2993" />
    <sodipodi:guide
       position="0,580"
       orientation="580,0"
       id="guide2995" />
    <sodipodi:guide
       position="0,0"
       orientation="0,580"
       id="guide2997" />
    <sodipodi:guide
       position="580,0"
       orientation="-580,0"
       id="guide2999" />
    <sodipodi:guide
       position="580,580"
       orientation="0,-580"
       id="guide3001" />
    <sodipodi:guide
       position="0,580"
       orientation="580,0"
       id="guide3003" />
    <inkscape:grid
       type="xygrid"
       id="grid3013"
       empspacing="5"
       visible="true"
       enabled="true"
       snapvisiblegridlinesonly="true" />
  </sodipodi:namedview>
  <metadata
     id="metadata2975">image/svg+xmlen<rdf:RDF>
  <cc:Work
     rdf:about="">
    <dc:format>image/svg+xml</dc:format>
    <dc:type
       rdf:resource="http://purl.org/dc/dcmitype/StillImage" />
    <dc:title />
  </cc:Work>
</rdf:RDF>
</metadata>
  <path
     sodipodi:type="inkscape:offset"
     inkscape:radius="-0.55654854"
     inkscape:original="M -13.742188 -4.3652344 C -19.160417 -4.3652344 -23.580078 0.05454092 -23.580078 5.4726562 C -23.580078 10.890772 -19.160781 15.3125 -13.742188 15.3125 C -8.3236876 15.3125 -3.9042969 10.890793 -3.9042969 5.4726562 C -3.9042969 0.05454158 -8.3239532 -4.3652344 -13.742188 -4.3652344 z "
     style="color:#000000;clip-rule:nonzero;display:inline;overflow:visible;visibility:visible;opacity:1;isolation:auto;mix-blend-mode:normal;color-interpolation:sRGB;color-interpolation-filters:linearRGB;solid-color:#000000;solid-opacity:1;fill:#fefefe;fill-opacity:1;fill-rule:nonzero;stroke-width:0.13136107;stroke-linecap:butt;stroke-linejoin:miter;stroke-miterlimit:4;stroke-dasharray:none;stroke-dashoffset:0;stroke-opacity:1;color-rendering:auto;image-rendering:auto;shape-rendering:auto;text-rendering:auto;enable-background:accumulate"
     id="path4143"
     d="m -13.742188,-3.8085938 c -5.115569,1e-7 -9.28125,4.16579301 -9.28125,9.28125 0,5.1154828 4.165431,9.2832028 9.28125,9.2832028 5.1157241,0 9.2812505,-4.167704 9.2812505,-9.2832028 0,-5.11545661 -4.1656746,-9.2812499 -9.2812505,-9.28125 z"
     transform="matrix(0.49130369,0,0,0.49130369,14.751587,5.310784)" />
  <path
     d="m 7.9999997,3.9820023 c -2.2189455,0 -4.0175373,1.7986449 -4.0175373,4.0175377 0,2.218893 1.7985912,4.018457 4.0175373,4.018457 2.2188933,0 4.0175373,-1.799564 4.0175373,-4.018457 0,-2.2188928 -1.798591,-4.0175377 -4.0175373,-4.0175377 z m 0,0.5428878 c 1.9159337,0 3.4688723,1.5529391 3.4688723,3.4688727 0,1.915933 -1.5529386,3.4688722 -3.4688723,3.4688722 -1.915989,0 -3.4688722,-1.5529392 -3.4688722,-3.4688722 0,-1.9159336 1.5528832,-3.4688727 3.4688722,-3.4688727 z m -2.1446555,1.3654787 0,4.2048682 0.7216022,0 -9.586e-4,-3.0389815 1.401943,1.3875491 2.1235442,-2.0534959 0,-0.4999399 -0.4721114,0 L 8.0000006,7.5139739 6.3543254,5.8903688 Z M 10.101474,6.7443929 7.9779299,8.8602612 6.8475472,7.7644237 l 0,0.9365477 1.1303827,1.130382 1.4134574,-1.4422447 -0.011515,1.7061283 0.7216024,0 z"
     id="path3"
     inkscape:connector-curvature="0"
     sodipodi:nodetypes="sssssssssscccccccccccccccccccc" />
</svg>

<svg width="16" height="16" viewBox="0 0 16 16" fill="none" xmlns="http://www.w3.org/2000/svg">
<path d="M7.99998 3.43961C5.48668 3.43961 3.44006 5.48628 3.44006 7.99952C3.44006 10.5128 5.48655 12.5604 7.99998 12.5604C10.5133 12.5604 12.5599 10.5128 12.5599 7.99952C12.5599 5.48628 10.5133 3.43961 7.99998 3.43961V3.43961Z" fill="#FEFEFE"/>
<path d="M8.00002 3.98199C5.78107 3.98199 3.98248 5.78064 3.98248 7.99953C3.98248 10.2184 5.78107 12.018 8.00002 12.018C10.2189 12.018 12.0176 10.2184 12.0176 7.99953C12.0176 5.78064 10.219 3.98199 8.00002 3.98199V3.98199ZM8.00002 4.52488C9.91595 4.52488 11.4689 6.07782 11.4689 7.99376C11.4689 9.90969 9.91595 11.4626 8.00002 11.4626C6.08403 11.4626 4.53115 9.90969 4.53115 7.99376C4.53115 6.07782 6.08403 4.52488 8.00002 4.52488V4.52488ZM5.85536 5.89036V10.0952H6.57697L6.57601 7.05625L7.97795 8.4438L10.1015 6.3903V5.89036H9.62938L8.00002 7.51397L6.35435 5.89036H5.85536ZM10.1015 6.74439L7.97795 8.86025L6.84757 7.76442V8.70096L7.97795 9.83135L9.39141 8.3891L9.37989 10.0952H10.1015L10.1015 6.74439Z" fill="black"/>
</svg>
